tela-icon-theme/src/symbolic/actions/align-horizontal-right-to-anchor-symbolic.svg

<svg width="16" height="16" version="1.1" viewBox="0 0 4.233 4.233" xmlns="http://www.w3.org/2000/svg">
 <path d="m2.6456 0v0.265h1.4554c0.073 0 0.132 0.059 0.132 0.132v1.058c0 0.072902-0.059098 0.132-0.132 0.132h-1.4544v2.646h-0.26562v-0.529h-2.249c-0.072902 0-0.132-0.059098-0.132-0.132v-1.058c0-0.074 0.059-0.133 0.132-0.133h2.25v-0.264h-1.457c-0.073294 2.1e-6 -0.13256-0.059708-0.132-0.133v-1.058c0-0.073 0.059-0.132 0.132-0.132h1.455v-0.794zm1.3244 0.53h-1.3244v0.793h1.3244zm-1.588 0.528h-1.324v0.794h1.323zm0 1.588h-2.117v0.794h2.115z" fill="#5d656b"/>
</svg>

<svg xmlns="http://www.w3.org/2000/svg" viewBox="0 0 4.233 4.233" height="16" width="16"><path d="M2.91 0v.265h1.191c.073 0 .132.059.132.132v1.058a.132.132 0 0 1-.132.132h-1.19v2.646h-.53v-.529H.132A.132.132 0 0 1 0 3.572V2.514c0-.074.059-.133.132-.133h2.25v-.264H.925a.132.132 0 0 1-.132-.133V.926c0-.073.059-.132.132-.132h1.455V0zM3.97.53H2.91v.793H3.97zm-1.588.528H1.058v.794h1.323zm0 1.588H.265v.794H2.38z" style="marker:none" fill="#5d656b"/><rect transform="scale(-1 1)" ry="0" rx="0" y=".529" x="-3.969" height=".794" width="1.323" style="marker:none" opacity=".3" fill="#5d656b" fill-opacity=".931"/><path d="M2.646 1.058v.794H1.058v-.794zm0 1.588v.794H.265v-.794z" opacity=".1" fill="#5d656b" fill-opacity=".931"/></svg>
